X:61
T:Gerry's Beaver Hat
M:6/8
L:1/8
Q:120
R:Jig (Key of D)
K:Dmaj
"D"DFA d2e | "G"fdB BAF | "D"~A3 dAF | "A"~E3 GFE |
"D"DFA d2e | "G"fdB BAF | "D"~A3 dAF |"A"DED "D"D3 :|: 
"D"dfa afd | "G"gbg "D"faf | dfa afd | "A"cde ecA |
"D"dfa afd | "G"gbg "D"faf | "G"~B3 "D"AFA | "A"dAF "D"D3 :|]
